packages/ffe-icons/icons/open/300/md/background_grid_small.svg

<svg xmlns="http://www.w3.org/2000/svg" height="24" viewBox="0 -960 960 960" width="24"><path d="M212.309-200h82.692v-95.001H200v82.692q0 4.616 3.846 8.463 3.847 3.846 8.463 3.846ZM355-200h95.001v-95.001H355V-200Zm154.999 0H605v-95.001h-95.001V-200Zm155 0h82.692q4.616 0 8.463-3.846 3.846-3.847 3.846-8.463v-82.692h-95.001V-200ZM200-664.999h95.001V-760h-82.692q-4.616 0-8.463 3.846-3.846 3.847-3.846 8.463v82.692Zm0 155h95.001V-605H200v95.001ZM200-355h95.001v-95.001H200V-355Zm155-309.999h95.001V-760H355v95.001Zm0 155h95.001V-605H355v95.001ZM355-355h95.001v-95.001H355V-355Zm154.999-309.999H605V-760h-95.001v95.001Zm0 155H605V-605h-95.001v95.001Zm0 154.999H605v-95.001h-95.001V-355Zm155-309.999H760v-82.692q0-4.616-3.846-8.463-3.847-3.846-8.463-3.846h-82.692v95.001Zm0 155H760V-605h-95.001v95.001Zm0 154.999H760v-95.001h-95.001V-355Zm-452.69 214.999q-30.308 0-51.308-21t-21-51.308v-535.382q0-30.308 21-51.308t51.308-21h535.382q30.308 0 51.308 21t21 51.308v535.382q0 30.308-21 51.308t-51.308 21H212.309Z"/></svg>

<svg xmlns="http://www.w3.org/2000/svg" height="24" viewBox="0 -960 960 960" width="24"><path d="M212.31-200H295v-95h-95v82.69q0 4.62 3.85 8.46 3.84 3.85 8.46 3.85ZM355-200h95v-95h-95v95Zm155 0h95v-95h-95v95Zm155 0h82.69q4.62 0 8.46-3.85 3.85-3.84 3.85-8.46V-295h-95v95ZM200-665h95v-95h-82.69q-4.62 0-8.46 3.85-3.85 3.84-3.85 8.46V-665Zm0 155h95v-95h-95v95Zm0 155h95v-95h-95v95Zm155-310h95v-95h-95v95Zm0 155h95v-95h-95v95Zm0 155h95v-95h-95v95Zm155-310h95v-95h-95v95Zm0 155h95v-95h-95v95Zm0 155h95v-95h-95v95Zm155-310h95v-82.69q0-4.62-3.85-8.46-3.84-3.85-8.46-3.85H665v95Zm0 155h95v-95h-95v95Zm0 155h95v-95h-95v95ZM212.31-140Q182-140 161-161q-21-21-21-51.31v-535.38Q140-778 161-799q21-21 51.31-21h535.38Q778-820 799-799q21 21 21 51.31v535.38Q820-182 799-161q-21 21-51.31 21H212.31Z"/></svg>
